X: 8682
T: Crossing The Shannon
R: reel
M: 4/4
K: Dmajor
|:FG|Ad Pd2 AdFd|Ad Pd2 fded|Ad Pd2 AdFd|PG2FG EFGE|
Ad Pd2 AdFd|Ad Pd2 fded|Adfa gefa|gece d2:|
|:FG|Ad Pd2 fage|fage fdBd|Ad Pd2 AdFd|PG2FG EFGE|
Ad Pd2 fage|fage fdBd|Adfa gefa|gece d2:|

